X:1
T:Stealth Infiltration (10s)
C:Cascade
M:4/4
L:1/8
Q:1/4=80
K:Am
V:1
|: A,3 E A3 c | B,3 E B3 d | A,3 E A3 e | c3 B A3 G | A,2 E2 A2 c2 | B,2 d2 c2 B2 | A,2 G,2 E,2 A,2 | A,8 :|
